svg/filter_multiple_outline.svg

<svg xmlns="http://www.w3.org/2000/svg" viewBox="0 0 24 24"><path d="M3.47 5c-.22 0-.43.08-.6.21-.44.34-.52.97-.18 1.4v.01L7 12.14v5.91l3.64 3.66c.36.39 1.02.39 1.41 0s.39-1.02.01-1.41L9 17.22v-5.77L4.27 5.39c-.19-.25-.49-.39-.8-.39m18.15-1.78c-.19-.14-.4-.22-.62-.22H7c-.22 0-.43.08-.62.22a1 1 0 0 0-.17 1.4L11 10.75v5.12c-.04.29.06.6.29.83l4.01 4.01c.39.39 1.02.39 1.41 0 .23-.21.33-.53.29-.83v-9.13l4.79-6.13a1 1 0 0 0-.17-1.4M15 10.05v7.53l-2-2v-5.52L9.04 5h9.92z"/></svg>

<svg xmlns="http://www.w3.org/2000/svg" id="mdi-filter-multiple-outline" viewBox="0 0 24 24"><path d="M3.47 5C3.25 5 3.04 5.08 2.87 5.21C2.43 5.55 2.35 6.18 2.69 6.61L2.69 6.62L7 12.14V18.05L10.64 21.71C11 22.1 11.66 22.1 12.05 21.71L12.05 21.71C12.44 21.32 12.44 20.69 12.06 20.3L9 17.22V11.45L4.27 5.39C4.08 5.14 3.78 5 3.47 5M21.62 3.22C21.43 3.08 21.22 3 21 3H7C6.78 3 6.57 3.08 6.38 3.22C5.95 3.56 5.87 4.19 6.21 4.62L11 10.75V15.87C10.96 16.16 11.06 16.47 11.29 16.7L15.3 20.71C15.69 21.1 16.32 21.1 16.71 20.71C16.94 20.5 17.04 20.18 17 19.88V10.75L21.79 4.62C22.13 4.19 22.05 3.56 21.62 3.22M15 10.05V17.58L13 15.58V10.06L9.04 5H18.96L15 10.05Z" /></svg>
